images/ico-bicro-marche-handicap.svg

<svg xmlns="http://www.w3.org/2000/svg" width="25" height="25" fill="none" viewBox="0 0 25 25"><g id="marche/handicap"><g id="Group 14"><circle id="Ellipse 10" cx="14.25" cy="7.25" r="6.25" fill="#fdd"/><path id="Path 39" fill="#000638" d="M20.2609 14.1188C20.491 14.1188 20.6776 14.3053 20.6776 14.5354C20.6776 14.7512 20.5136 14.9286 20.3035 14.95L20.2609 14.9521L18.7194 14.952L18.7175 14.9698C18.6797 15.2036 18.5049 15.3808 18.2568 15.402L18.2063 15.4042C18.0878 15.4042 17.9694 15.3711 17.8359 15.309L17.7931 15.288L17.7362 15.2869C16.7243 15.2695 15.9494 15.3298 15.4196 15.4629L15.342 15.4834C14.5832 15.6943 13.9087 15.9836 13.3168 16.3196C12.943 16.532 12.4605 16.6471 11.8612 16.6741L11.7309 16.6785L9.22054 16.6776L8.8116 16.6696L8.66278 16.6694L8.58671 16.6715L8.52574 16.6755C8.50762 16.6772 8.49152 16.6792 8.47697 16.6815L8.43576 16.69L8.43734 16.6934L8.43879 16.7101L8.43708 16.8106L8.43121 16.925L8.4147 17.1564C8.41132 17.204 8.40872 17.2476 8.40692 17.2874L8.40389 17.396C8.40345 17.4614 8.40618 17.5133 8.4121 17.5548L8.41742 17.585L8.55538 17.5974L8.73991 17.6114L8.94229 17.6241L9.27912 17.6408L9.65565 17.6546L10.0878 17.6656L13.537 17.6656L13.543 18.4989L12.8156 18.5077L11.9187 18.5137L11.4094 18.514L10.8073 18.5107L10.4335 18.5061L10.0518 18.499L8.56398 18.4989C8.36601 18.4988 8.1925 18.4591 8.04834 18.3833L8.03776 18.377C7.86053 18.3527 7.71875 18.3249 7.61123 18.2937L7.57666 18.2832C6.80538 18.0365 5.63187 17.4782 4.98338 17.0721L4.89441 17.0152C4.42933 16.7106 4.00442 16.6877 3.89354 16.9018C3.69617 17.2828 3.70827 17.5453 3.89084 17.886C3.89812 17.8996 3.91896 17.9171 3.95176 17.938L4.00974 17.9718C4.02083 17.9778 4.03262 17.984 4.04508 17.9905L4.12773 18.031L4.22532 18.0756L4.33666 18.1237L4.52682 18.2016L4.66728 18.2567L4.8955 18.343L5.2262 18.4628L5.5783 18.5848L5.94219 18.7055L6.21708 18.7931L6.39903 18.8493L6.75438 18.9545L7.00869 19.0255C7.1841 19.0729 7.38223 19.146 7.63188 19.2526L7.94945 19.3935L8.77615 19.7759L8.90921 19.8364L9.15782 19.9468L9.38775 20.0448C9.49897 20.0911 9.60527 20.1335 9.70977 20.1732C10.0171 20.29 10.2937 20.3771 10.5462 20.4341C11.9875 20.7598 13.0172 20.7843 14.2105 20.4402C14.7548 20.2832 15.3868 20.0572 16.1058 19.7621L16.4439 19.621C16.5012 19.5967 16.5591 19.5719 16.6175 19.5468L16.974 19.391L17.3429 19.2254L17.8077 19.011L17.8914 19.011L17.8917 18.0828H18.7251L18.7248 19.9293L21.4227 19.9295C21.6384 19.9295 21.8158 20.0934 21.8372 20.3035L21.8393 20.3462C21.8393 20.5619 21.6754 20.7393 21.4653 20.7607L21.4227 20.7628H17.8917L17.8914 19.8903L17.8788 19.8966C17.3986 20.1176 16.946 20.3162 16.5208 20.4924L16.1631 20.638C16.1046 20.6613 16.0466 20.6842 15.9892 20.7066L15.6516 20.8358C15.2654 20.9801 14.9066 21.102 14.575 21.2016L14.4414 21.2409C13.096 21.6289 11.9298 21.6012 10.3625 21.247C10.0681 21.1804 9.75508 21.0819 9.41369 20.9521C9.22704 20.8812 9.03716 20.8032 8.82853 20.7123L8.56817 20.5967L7.4893 20.0998L7.31375 20.0229L7.15783 19.958C7.10894 19.9383 7.06304 19.9206 7.01986 19.9046L6.89815 19.8621C6.86011 19.8496 6.82451 19.839 6.79105 19.8299L6.56106 19.7667L6.21778 19.6686L5.99127 19.6013L5.76756 19.5326L5.54746 19.4627L5.33178 19.3918L5.12133 19.32L4.91691 19.2475L4.71934 19.1744C4.68703 19.1622 4.65503 19.1499 4.62337 19.1377L4.43758 19.0641L4.26065 18.9903C4.23194 18.978 4.20364 18.9657 4.17576 18.9534L4.01363 18.8797L3.86238 18.8062C3.49853 18.623 3.24425 18.4437 3.1563 18.2796C2.84924 17.7065 2.82381 17.1551 3.1536 16.5184C3.55192 15.7495 4.48017 15.7787 5.28592 16.2767L5.35097 16.3181C5.83688 16.6363 6.78432 17.1031 7.50745 17.3761L7.56976 17.399L7.57079 17.3403L7.57353 17.2643L7.60274 16.8154L7.60483 16.7604L7.60546 16.7101C7.60546 16.3024 7.80809 16.0136 8.17012 15.8997L8.24259 15.8788C8.26642 15.8727 8.29015 15.8673 8.3144 15.8626L8.38941 15.8505L8.47145 15.8423L8.56438 15.8374L8.67205 15.8353L8.7983 15.8358L9.30913 15.8451L11.7211 15.8453C12.2449 15.8329 12.6399 15.7458 12.9053 15.595C13.554 15.2266 14.291 14.9106 15.1189 14.6805C15.7381 14.5085 16.6082 14.4346 17.7385 14.4534L18.013 14.4594L18.0201 14.4636L18.0331 14.4458C18.1237 14.3272 18.2545 14.2334 18.4147 14.1668L18.4762 14.1431L18.5441 14.1188H20.2609Z"/><path id="Shape" fill="#000638" fill-rule="evenodd" d="M12.4122 3.29587C12.132 3.26537 11.8491 3.25 11.5645 3.25C7.28425 3.25 3.81445 6.71979 3.81445 11C3.81445 12.7293 4.38292 14.3734 5.41442 15.7165C5.55458 15.899 5.81615 15.9333 5.99866 15.7932C6.18117 15.653 6.21549 15.3914 6.07533 15.2089C5.15469 14.0101 4.64779 12.5442 4.64779 11C4.64779 7.18003 7.74448 4.08333 11.5645 4.08333C11.819 4.08333 12.0717 4.09706 12.322 4.12431C12.5508 4.14921 12.7564 3.98395 12.7813 3.75518C12.8062 3.52642 12.641 3.32078 12.4122 3.29587ZM19.3145 11C19.3145 7.73728 17.2796 4.85797 14.2726 3.73642C14.057 3.656 13.8171 3.7656 13.7366 3.98121C13.6562 4.19682 13.7658 4.43679 13.9814 4.51721C16.665 5.51814 18.4812 8.08799 18.4812 11C18.4812 11.8732 18.3195 12.7234 18.0084 13.5187C17.9246 13.733 18.0303 13.9747 18.2447 14.0585C18.459 14.1424 18.7006 14.0366 18.7845 13.8223C19.1333 12.9306 19.3145 11.9775 19.3145 11Z" clip-rule="evenodd"/><path id="Oval" fill="#000638" fill-rule="evenodd" d="M11.1475 7.16663C11.1475 6.47627 11.7071 5.91663 12.3975 5.91663C13.0878 5.91663 13.6475 6.47627 13.6475 7.16663C13.6475 7.85698 13.0878 8.41663 12.3975 8.41663C11.7071 8.41663 11.1475 7.85698 11.1475 7.16663ZM12.8141 7.16663C12.8141 6.93651 12.6276 6.74996 12.3975 6.74996C12.1673 6.74996 11.9808 6.93651 11.9808 7.16663C11.9808 7.39674 12.1673 7.58329 12.3975 7.58329C12.6276 7.58329 12.8141 7.39674 12.8141 7.16663Z" clip-rule="evenodd"/><path id="Shape_2" fill="#000638" fill-rule="evenodd" d="M10.9972 9.15519C11.22 9.09744 11.3538 8.87005 11.296 8.64729C11.2383 8.42454 11.0109 8.29077 10.7881 8.34852C9.43903 8.69825 8.48047 9.92021 8.48047 11.3334C8.48047 11.9044 8.63633 12.4535 8.92656 12.9316C9.04598 13.1283 9.30225 13.1909 9.49896 13.0715C9.69566 12.9521 9.7583 12.6958 9.63888 12.4991C9.42726 12.1505 9.3138 11.7508 9.3138 11.3334C9.3138 10.3022 10.0135 9.4102 10.9972 9.15519ZM14.5477 12.1129C14.6057 11.8902 14.4722 11.6627 14.2496 11.6046C14.0269 11.5466 13.7993 11.6801 13.7413 11.9027C13.4852 12.8851 12.5939 13.5834 11.5638 13.5834C11.1612 13.5834 10.7749 13.4778 10.435 13.2802C10.236 13.1645 9.98098 13.232 9.86532 13.431C9.74967 13.6299 9.81719 13.885 10.0161 14.0006C10.4825 14.2717 11.0131 14.4167 11.5638 14.4167C12.9755 14.4167 14.1965 13.4601 14.5477 12.1129Z" clip-rule="evenodd"/><path id="Path 40" fill="#000638" d="M10.6165 9.63066L12.3595 8.04272L12.5943 10.4993L14.3254 10.4995L15.3138 11.724V12.5787C15.3138 12.8088 15.1273 12.9954 14.8971 12.9954C14.6814 12.9954 14.504 12.8314 14.4826 12.6213L14.4805 12.5787L14.4803 12.0183L13.927 11.3326L11.8368 11.3329L11.6883 9.78128L11.1777 10.2467C11.019 10.3913 10.7788 10.3903 10.6215 10.2512L10.5891 10.2193C10.4445 10.0605 10.4455 9.82036 10.5846 9.66305L10.6165 9.63066Z"/><ellipse id="Oval_2" cx="19.5638" cy="19" fill="#000638" rx="0.333332" ry="0.333333"/></g></g></svg>

<svg xmlns="http://www.w3.org/2000/svg" width="25" height="25" fill="none" viewBox="0 0 25 25"><circle cx="14.25" cy="7.25" r="6.25" fill="#FDD"/><path fill="#000638" d="M20.26 14.119a.417.417 0 0 1 .043.831l-.042.002h-1.542l-.002.018a.5.5 0 0 1-.46.432l-.05.002a.9.9 0 0 1-.371-.095l-.043-.021-.057-.001c-1.012-.018-1.787.043-2.316.176l-.078.02c-.759.211-1.433.5-2.025.837-.374.212-.857.327-1.456.354l-.13.005-2.51-.001-.41-.008h-.148l-.076.002-.061.003-.049.006-.041.009.001.003.002.017-.002.1-.006.115-.016.231-.008.131-.003.109q0 .097.008.159l.005.03.138.012.185.014.202.013.337.017.377.014.432.01h3.449l.006.834-.727.009-.897.006h-.51l-.602-.003-.373-.005-.382-.007H8.564a1.1 1.1 0 0 1-.516-.116l-.01-.006a3 3 0 0 1-.427-.083l-.034-.01c-.772-.247-1.945-.806-2.594-1.212l-.089-.057c-.465-.304-.89-.327-1-.113-.198.38-.186.643-.003.984a.2.2 0 0 0 .06.052l.059.034.035.018.083.041.097.045.112.048.19.078.14.055.229.086.33.12.352.122.364.12.275.088.182.056.355.105.255.072c.175.047.373.12.623.227l.317.14.827.383.133.06.249.11.23.099q.166.069.322.128.46.175.836.261c1.442.326 2.471.35 3.665.006a19 19 0 0 0 1.895-.678l.338-.141.174-.074.356-.156.369-.166.465-.214h.083v-.928h.834v1.846h2.698c.215 0 .393.164.414.375l.002.042a.417.417 0 0 1-.374.415l-.042.002h-3.531v-.873l-.013.007q-.72.331-1.358.595l-.358.146-.174.069-.337.129q-.58.216-1.077.366l-.134.039c-1.345.388-2.511.36-4.078.006a7 7 0 0 1-.95-.295c-.186-.07-.376-.149-.584-.24l-.26-.115-1.08-.497-.175-.077-.156-.065-.138-.053-.122-.043-.107-.032-.23-.063-.343-.098-.227-.068-.223-.068-.22-.07-.216-.071-.21-.072-.205-.073-.198-.073-.096-.036-.185-.074-.177-.074-.085-.037-.162-.073-.152-.074c-.363-.183-.618-.362-.706-.526-.307-.574-.332-1.125-.002-1.762.398-.769 1.326-.74 2.132-.241l.065.041c.486.318 1.433.785 2.156 1.058l.063.023v-.059l.004-.076.029-.449.002-.055v-.05c0-.408.203-.696.565-.81l.073-.021.071-.016.075-.012.082-.009.093-.005.108-.002h.126l.511.01h2.412c.524-.012.919-.1 1.184-.25a9.8 9.8 0 0 1 2.214-.915c.62-.171 1.49-.245 2.62-.227l.274.006.007.005.013-.018a.9.9 0 0 1 .382-.28l.061-.023.068-.024z"/><path fill="#000638" fill-rule="evenodd" d="M12.412 3.296a7.75 7.75 0 0 0-6.998 12.42.417.417 0 0 0 .661-.507 6.917 6.917 0 0 1 6.247-11.085.417.417 0 1 0 .09-.828M19.314 11a7.75 7.75 0 0 0-5.041-7.264.417.417 0 0 0-.292.781 6.92 6.92 0 0 1 4.027 9.002.417.417 0 1 0 .777.303c.348-.891.53-1.844.53-2.822" clip-rule="evenodd"/><path fill="#000638" fill-rule="evenodd" d="M11.148 7.167a1.25 1.25 0 1 1 2.5 0 1.25 1.25 0 0 1-2.5 0m1.666 0a.417.417 0 1 0-.833 0 .417.417 0 0 0 .833 0m-1.817 1.988a.417.417 0 1 0-.209-.806 3.084 3.084 0 0 0-1.861 4.583.417.417 0 0 0 .712-.433 2.25 2.25 0 0 1 1.358-3.344m3.55 2.958a.417.417 0 0 0-.806-.21 2.25 2.25 0 0 1-3.306 1.377.417.417 0 1 0-.419.72 3.084 3.084 0 0 0 4.532-1.888" clip-rule="evenodd"/><path fill="#000638" d="m10.617 9.63 1.742-1.587.235 2.456h1.731l.989 1.225v.855a.417.417 0 0 1-.831.042l-.003-.042v-.56l-.553-.686h-2.09l-.149-1.552-.51.466a.417.417 0 0 1-.557.004l-.032-.032a.417.417 0 0 1-.004-.556z"/><ellipse cx="19.5638" cy="19" fill="#000638" rx="0.333332" ry="0.333333"/></svg>
